X: 63
T:Ook Pik - Low Harmony
M:3/4
L:1/8
Q:80
C:Northwestern
S:Harmony by S.C.
R:Waltz
K:G
|:"G"D3B, DG|"D"F2D2B,2|"G"D6|D4G2|"Em"B3GBd|B2A2G2|"G"B4BA|G4G2|"Em"B3
G Bd|!
B2G2ED|"G"G3-B G-F|"Em"ED B,2 G,2|"C"G,2C2DG|"D"F2D2A,2|"G"B,6|[1"G"B,4
G,2:|[2"G"D3 D GA||!
"Em"B2 G4|G2F2EG|"G"B2G-F|G6|"Am"E4-EE|G2F2E2|"Em"B,2 G,2 G,A,|B,4EG|"Em
"B2G3G|!
G2F2EG|"G"B2G2-F2|G6|"Am"E4-EE|G2F2E2|"Em"B,2G,2G,A,|B,4G2,|]
